X:1
T:Title
%%score { ( 1 3 ) | ( 2 4 ) }
L:1/8
Q:1/4=100
M:4/4
K:Ab
V:1 treble nm="Grand Piano"
V:3 treble 
V:2 bass 
V:4 bass 
V:1
 (3[Ec][Ec][Ec] [Ec]>[DB] [CA]2 [CA]>[Ec] | e4 c4 | (3AAA A>B [Ec]2 [Ee]>[Ec] | [EB]6 z2 | %4
w: W.~R.~White * * * * * * *||||
 (3[Ec][Ec][Ec] [Ec]>[DB] [CA]2 [CA]>[CE] | [DF]4 [Fd]4 | (3ccc c>A B2 c>B |[M:3/4] [A,CA]6 | %8
w: ||||
[M:12/8] z3 c6- c z z | [FB][FA]F z3[K:bass] E,3 C3 | z3 G3- G6 |[M:9/8] z3 A6- |[M:3/8] A3 | EAB | %14
w: ||||||
[M:6/4] .c12 | E6[K:bass] z6[K:treble] | z2 z [DE]3 z2 z B3 |[M:9/8] A8- A |] %18
w: ||||
V:2
 (3[A,,A,][A,,A,][A,,A,] [A,,A,]>[A,,A,] [A,,E,]2 [A,,E,]>[A,,A,] | [A,CE]4 [A,E]4 | %2
 (3[A,CE][A,CE][A,CE] [A,CE]>[A,CE] [A,,A,]2 [C,A,]>[C,A,] | [E,G,]6 z2 | %4
 (3[A,,A,][A,,A,][A,,A,] [A,,A,]>[A,,A,] [A,,E,]2 [A,,E,]>[A,,A,] | [D,A,]4 [B,,B,]4 | %6
 (3[E,A,E][E,A,E][E,A,E] [E,A,E]>[E,A,C] [E,G,D]2 [E,G,E]>[E,G,D] |[M:3/4] A,,6 | %8
[M:12/8] z3 E6- E z z | [D,A,][D,D][D,A,D] [A,C]6 [A,,E,A,]3 | A,CC E3 [E,B,][E,B,][E,B,] [E,B,]3 | %11
[M:9/8] DDD C3 [A,,F,][A,,F,][A,,F,] |[M:3/8] [A,,E,]3 | CCD |[M:6/4] .E12 | %15
 [A,C]6 [A,,E,A,]3 A,CC | z6 z2 z D3 |[M:9/8] A,,3- [A,,-F,][A,,-F,][A,,-F,] [A,,E,]3 |] %18
V:3
 x8 | x8 | x8 | x8 | x8 | x8 | x8 |[M:3/4] x6 |[M:12/8] EAB z3 A,A,A, A,[EB][EA] | %9
 z3 E6[K:bass] z3 | CEA z3 EEE E3 |[M:9/8] EGB z3 DDD |[M:3/8] C3 | x3 | %14
[M:6/4] z2 z A,A,A, A,[EB][EA][FB][FA]F | z2 z[K:bass] E,3 C3[K:treble] CEA | G3 G,G,G, c4 G,G, | %17
[M:9/8] C3 DDD C3 |] %18
V:4
 x8 | x8 | x8 | x8 | x8 | x8 | x8 |[M:3/4] x6 |[M:12/8] CCD z3 A,,A,,A,, A,,[B,,G,][C,A,] | x12 | %10
 x12 |[M:9/8] x9 |[M:3/8] x3 | x3 |[M:6/4] z2 z A,,A,,A,, A,,[B,,G,][C,A,][D,A,][D,D][D,A,D] | %15
 x12 | D3 E,E,E, [E,A,E]3 [E,G,]E,E, |[M:9/8] E,3 z3 z3 |] %18

